pidgin/pixmaps/emotes/default/24/scalable/beer.svg

<?xml version="1.0" encoding="UTF-8" standalone="no"?>
<!-- Created with Inkscape (http://www.inkscape.org/) -->
<svg
   xmlns:dc="http://purl.org/dc/elements/1.1/"
   xmlns:cc="http://creativecommons.org/ns#"
   xmlns:rdf="http://www.w3.org/1999/02/22-rdf-syntax-ns#"
   xmlns:svg="http://www.w3.org/2000/svg"
   xmlns="http://www.w3.org/2000/svg"
   xmlns:xlink="http://www.w3.org/1999/xlink"
   xmlns:sodipodi="http://sodipodi.sourceforge.net/DTD/sodipodi-0.dtd"
   xmlns:inkscape="http://www.inkscape.org/namespaces/inkscape"
   width="24"
   height="24"
   id="svg2191"
   sodipodi:version="0.32"
   inkscape:version="0.46"
   version="1.0"
   sodipodi:docbase="/home/hbons/Desktop/Gaim Refresh/emotes/scalable"
   sodipodi:docname="beer.svg"
   inkscape:export-filename="/home/hbons/Desktop/Pidgin objects refresh/beer.png"
   inkscape:export-xdpi="90"
   inkscape:export-ydpi="90"
   inkscape:output_extension="org.inkscape.output.svg.inkscape">
  <defs
     id="defs2193">
    <linearGradient
       inkscape:collect="always"
       id="linearGradient3613">
      <stop
         style="stop-color:#babdb6;stop-opacity:1;"
         offset="0"
         id="stop3615" />
      <stop
         style="stop-color:#92978b;stop-opacity:1"
         offset="1"
         id="stop3617" />
    </linearGradient>
    <linearGradient
       inkscape:collect="always"
       id="linearGradient3563">
      <stop
         style="stop-color:#805c19;stop-opacity:1;"
         offset="0"
         id="stop3565" />
      <stop
         style="stop-color:#b07e20;stop-opacity:1"
         offset="1"
         id="stop3567" />
    </linearGradient>
    <linearGradient
       inkscape:collect="always"
       id="linearGradient3555">
      <stop
         style="stop-color:#999e97;stop-opacity:1;"
         offset="0"
         id="stop3557" />
      <stop
         style="stop-color:#6d736b;stop-opacity:1"
         offset="1"
         id="stop3559" />
    </linearGradient>
    <linearGradient
       inkscape:collect="always"
       id="linearGradient2226">
      <stop
         style="stop-color:#eeeeec;stop-opacity:1;"
         offset="0"
         id="stop2228" />
      <stop
         style="stop-color:#eeeeec;stop-opacity:0;"
         offset="1"
         id="stop2230" />
    </linearGradient>
    <linearGradient
       inkscape:collect="always"
       xlink:href="#linearGradient2226"
       id="linearGradient2232"
       x1="14.508163"
       y1="7.7864628"
       x2="14.508163"
       y2="17.402578"
       gradientUnits="userSpaceOnUse" />
    <linearGradient
       inkscape:collect="always"
       xlink:href="#linearGradient2226"
       id="linearGradient2234"
       x1="10.045679"
       y1="8.5480967"
       x2="10.045679"
       y2="18.979029"
       gradientUnits="userSpaceOnUse" />
    <linearGradient
       inkscape:collect="always"
       xlink:href="#linearGradient2226"
       id="linearGradient2236"
       x1="5.4918365"
       y1="8.4622221"
       x2="5.4918365"
       y2="18.839884"
       gradientUnits="userSpaceOnUse" />
    <filter
       inkscape:collect="always"
       id="filter3551"
       x="-0.15952178"
       width="1.3190436"
       y="-0.48227513"
       height="1.9645503">
      <feGaussianBlur
         inkscape:collect="always"
         stdDeviation="1.1456141"
         id="feGaussianBlur3553" />
    </filter>
    <linearGradient
       inkscape:collect="always"
       xlink:href="#linearGradient3555"
       id="linearGradient3561"
       x1="9"
       y1="9.341567"
       x2="9"
       y2="21"
       gradientUnits="userSpaceOnUse" />
    <linearGradient
       inkscape:collect="always"
       xlink:href="#linearGradient3563"
       id="linearGradient3569"
       x1="10"
       y1="12.43414"
       x2="11.219494"
       y2="17.53125"
       gradientUnits="userSpaceOnUse" />
    <linearGradient
       inkscape:collect="always"
       xlink:href="#linearGradient3613"
       id="linearGradient3673"
       gradientUnits="userSpaceOnUse"
       gradientTransform="matrix(1.315088,0,0,1.91488,-2.029316,-6.29802)"
       x1="9.1471567"
       y1="4.8298264"
       x2="9.7470465"
       y2="7.2059216" />
  </defs>
  <sodipodi:namedview
     id="base"
     pagecolor="#ffffff"
     bordercolor="#666666"
     borderopacity="1.0"
     inkscape:pageopacity="0.0"
     inkscape:pageshadow="2"
     inkscape:zoom="22.627417"
     inkscape:cx="16.845539"
     inkscape:cy="12.169767"
     inkscape:current-layer="layer1"
     showgrid="true"
     inkscape:grid-bbox="true"
     inkscape:document-units="px"
     fill="#d3d7cf"
     inkscape:window-width="1440"
     inkscape:window-height="845"
     inkscape:window-x="0"
     inkscape:window-y="24"
     showguides="true"
     inkscape:guide-bbox="true"
     objecttolerance="11"
     gridtolerance="12"
     inkscape:snap-bbox="true"
     inkscape:snap-nodes="false">
    <inkscape:grid
       type="xygrid"
       id="grid2505"
       empspacing="5"
       visible="true"
       enabled="true" />
  </sodipodi:namedview>
  <metadata
     id="metadata2196">
    <rdf:RDF>
      <cc:Work
         rdf:about="">
        <dc:format>image/svg+xml</dc:format>
        <dc:type
           rdf:resource="http://purl.org/dc/dcmitype/StillImage" />
      </cc:Work>
    </rdf:RDF>
  </metadata>
  <g
     id="layer1"
     inkscape:label="Layer 1"
     inkscape:groupmode="layer">
    <path
       sodipodi:type="arc"
       style="opacity:0.63;color:#000000;fill:#2e3436;fill-opacity:1;fill-rule:nonzero;stroke:none;stroke-width:1;marker:none;marker-start:none;marker-mid:none;marker-end:none;visibility:visible;display:inline;overflow:visible;enable-background:accumulate;filter:url(#filter3551)"
       id="path2507"
       sodipodi:cx="11.667262"
       sodipodi:cy="21.105282"
       sodipodi:rx="8.6178637"
       sodipodi:ry="2.8505242"
       d="m 20.285126,21.105282 a 8.6178637,2.8505242 0 1 1 -17.235727,0 8.6178637,2.8505242 0 1 1 17.235727,0 z"
       transform="matrix(0.9283043,0,0,1.0524382,0.1692301,-3.2120053)" />
    <path
       style="opacity:1;fill:#eeeeec;fill-opacity:1;stroke:url(#linearGradient3561);stroke-width:0.99112003999999998;stroke-miterlimit:4;stroke-dasharray:none;stroke-opacity:1"
       d="m 2.5357924,8.496577 c 0.0438338,2.173259 0.05032,5.349913 0.05032,7.911469 0,2.794038 2.541313,5.133965 7.4132347,5.133965 4.8408309,0 7.4650629,-2.368344 7.4650629,-4.998245 2.5363602,0 4.122723,0.229129 4.122723,-4.498168 0,-4.707546 -1.5863572,-4.5372349 -4.104308,-4.5372349 0,-2.3560504 0.101273,-5.0313052 -7.420595,-5.0313052 -7.4885453,0 -7.5264376,2.746371 -7.5264376,6.0195191 z m 14.951265,1.0371978 c 2.512943,0 2.072503,0.6392842 2.072503,2.4840632 0,1.418236 0.4404902,2.44464 -2.069888,2.44464 0,-0.984319 -0.002615,-3.944469 -0.002615,-4.9287032 z"
       id="path4023"
       sodipodi:nodetypes="cczccczccccc" />
    <path
       style="opacity:1;fill:#df9b25;fill-opacity:1;stroke:url(#linearGradient3569);stroke-width:1.00000131000000003;stroke-miterlimit:4;stroke-opacity:1"
       d="M 15.501546,11.891157 C 15.501546,16.956788 14.591273,18.499944 9.9829426,18.499944 C 5.4458171,18.499944 4.4999425,17.142941 4.4999425,11.954617 C 4.4999425,4.1050698 7.5782886,4.4965576 10.02936,4.4965576 C 12.546866,4.4965576 15.501546,4.7278647 15.501546,11.891157 z "
       id="path2224"
       sodipodi:nodetypes="czczc" />
    <path
       style="opacity:1;fill:url(#linearGradient2234);fill-opacity:1;stroke:none;stroke-width:1;stroke-miterlimit:4;stroke-opacity:1"
       d="M 8.0498286,10.006747 C 9.4801821,10.505399 10.655253,10.42966 12.066648,10.051478 L 12.066648,18.010165 C 10.929861,19.30935 9.2536155,19.298477 8.0247109,17.998441 L 8.0498286,10.006747 z "
       id="path1325"
       sodipodi:nodetypes="ccccc" />
    <path
       style="opacity:1;fill:url(#linearGradient2236);fill-opacity:1;stroke:none;stroke-width:1;stroke-miterlimit:4;stroke-opacity:1"
       d="M 3.9831802,8.1002896 C 4.7194076,9.3754729 6.0276784,9.6705259 7.0256108,9.9379211 L 7.0256108,18.004874 C 5.5637768,18.004874 5.1869671,18.29173 3.9580625,16.991694 L 3.9831802,8.1002896 z "
       id="path2216"
       sodipodi:nodetypes="ccccc" />
    <path
       style="opacity:1;fill:url(#linearGradient2232);fill-opacity:1;stroke:none;stroke-width:1;stroke-miterlimit:4;stroke-opacity:1"
       d="M 13.05364,10.028522 C 13.907332,9.9973191 15.276264,9.5045274 16.041937,8.1783432 L 16.041937,17.003417 C 14.90515,18.302602 14.671131,18.020215 12.974389,18.020215 L 13.05364,10.028522 z "
       id="path2220"
       sodipodi:nodetypes="ccccc" />
    <path
       sodipodi:type="arc"
       style="opacity:1;fill:none;stroke:#e1e0dd;stroke-width:0.50192386;stroke-miterlimit:4;stroke-opacity:1;stroke-dasharray:none"
       id="path3603"
       sodipodi:cx="9.1470556"
       sodipodi:cy="5.6392436"
       sodipodi:rx="4.1819873"
       sodipodi:ry="1.5661625"
       d="M 13.237798,5.9646176 A 4.1819873,1.5661625 0 0 1 5.0986696,6.031951"
       transform="matrix(1.5542849,0,0,2.5538433,-4.2171303,-9.9014784)"
       sodipodi:start="0.20927668"
       sodipodi:end="2.8881429"
       sodipodi:open="true" />
    <path
       style="opacity:1;fill:#ffffff;fill-opacity:1;fill-rule:evenodd;stroke:url(#linearGradient3673);stroke-width:1.00000059999999991;stroke-miterlimit:4;stroke-opacity:1;stroke-dasharray:none"
       d="m 10,1.5 c -3.0358241,0 -5.5000002,1.3445446 -5.5,3 0,0.6384458 0.3755979,1.2322618 1,1.71875 l 0,3.3089782 c 0,0.554 0.446,1 1,1 0.554,0 0.9999999,-0.446 1,-1 L 7.5,7.15625 C 8.2563306,7.369959 9.0898825,7.5 10,7.5 c 3.035824,0 5.5,-1.3445448 5.5,-3 0,-1.6554553 -2.464176,-3 -5.5,-3 z"
       id="path2266"
       sodipodi:nodetypes="csccsccssc" />
  </g>
</svg>

<?xml version="1.0" encoding="UTF-8" standalone="no"?>
<!-- Created with Inkscape (http://www.inkscape.org/) -->
<svg
   xmlns:dc="http://purl.org/dc/elements/1.1/"
   xmlns:cc="http://web.resource.org/cc/"
   xmlns:rdf="http://www.w3.org/1999/02/22-rdf-syntax-ns#"
   xmlns:svg="http://www.w3.org/2000/svg"
   xmlns="http://www.w3.org/2000/svg"
   xmlns:xlink="http://www.w3.org/1999/xlink"
   xmlns:sodipodi="http://inkscape.sourceforge.net/DTD/s odipodi-0.dtd"
   xmlns:inkscape="http://www.inkscape.org/namespaces/inkscape"
   width="24"
   height="24"
   id="svg2191"
   sodipodi:version="0.32"
   inkscape:version="0.43"
   version="1.0"
   sodipodi:docbase="/home/hbons/Desktop/Gaim Refresh/emotes/scalable"
   sodipodi:docname="beer.svg"
   inkscape:export-filename="/home/hbons/Desktop/Gaim Refresh/emotes/msn/beer.png"
   inkscape:export-xdpi="90"
   inkscape:export-ydpi="90">
  <defs
     id="defs2193">
    <linearGradient
       inkscape:collect="always"
       id="linearGradient2294">
      <stop
         style="stop-color:#d3d7cf;stop-opacity:1;"
         offset="0"
         id="stop2296" />
      <stop
         style="stop-color:#d3d7cf;stop-opacity:0;"
         offset="1"
         id="stop2298" />
    </linearGradient>
    <linearGradient
       inkscape:collect="always"
       id="linearGradient2226">
      <stop
         style="stop-color:#eeeeec;stop-opacity:1;"
         offset="0"
         id="stop2228" />
      <stop
         style="stop-color:#eeeeec;stop-opacity:0;"
         offset="1"
         id="stop2230" />
    </linearGradient>
    <linearGradient
       inkscape:collect="always"
       id="linearGradient2199">
      <stop
         style="stop-color:#babdb6;stop-opacity:1;"
         offset="0"
         id="stop2201" />
      <stop
         style="stop-color:#babdb6;stop-opacity:0;"
         offset="1"
         id="stop2203" />
    </linearGradient>
    <linearGradient
       inkscape:collect="always"
       id="linearGradient3150">
      <stop
         style="stop-color:#2e3436;stop-opacity:1;"
         offset="0"
         id="stop3152" />
      <stop
         style="stop-color:#2e3436;stop-opacity:0;"
         offset="1"
         id="stop3154" />
    </linearGradient>
    <radialGradient
       inkscape:collect="always"
       xlink:href="#linearGradient3150"
       id="radialGradient3156"
       cx="10.748654"
       cy="10.457643"
       fx="10.748654"
       fy="10.457643"
       r="6.6449099"
       gradientTransform="matrix(-0.842757,5.698892e-16,-4.565819e-9,-0.35721,19.80716,14.19321)"
       gradientUnits="userSpaceOnUse" />
    <linearGradient
       inkscape:collect="always"
       xlink:href="#linearGradient2199"
       id="linearGradient2209"
       gradientUnits="userSpaceOnUse"
       x1="19.230101"
       y1="15.785927"
       x2="10.514593"
       y2="15.785927"
       gradientTransform="matrix(-1,0,0,1,21.98882,0)" />
    <radialGradient
       inkscape:collect="always"
       xlink:href="#linearGradient3150"
       id="radialGradient1359"
       gradientUnits="userSpaceOnUse"
       gradientTransform="matrix(-0.842757,5.698892e-16,-4.565819e-9,-0.35721,19.80716,14.19321)"
       cx="10.748654"
       cy="10.457643"
       fx="10.748654"
       fy="10.457643"
       r="6.6449099" />
    <linearGradient
       inkscape:collect="always"
       xlink:href="#linearGradient2226"
       id="linearGradient2232"
       x1="14.508163"
       y1="6.9025793"
       x2="14.508163"
       y2="17.402578"
       gradientUnits="userSpaceOnUse" />
    <linearGradient
       inkscape:collect="always"
       xlink:href="#linearGradient2226"
       id="linearGradient2234"
       x1="10.045679"
       y1="6.25"
       x2="10.045679"
       y2="17.778603"
       gradientUnits="userSpaceOnUse" />
    <linearGradient
       inkscape:collect="always"
       xlink:href="#linearGradient2226"
       id="linearGradient2236"
       x1="5.4918365"
       y1="6.6944547"
       x2="5.4918365"
       y2="18.839884"
       gradientUnits="userSpaceOnUse" />
    <radialGradient
       inkscape:collect="always"
       xlink:href="#linearGradient2294"
       id="radialGradient2300"
       cx="8.3262348"
       cy="3.6795094"
       fx="8.3262348"
       fy="3.6795094"
       r="4.4976635"
       gradientTransform="matrix(1.719269,-1.618885e-16,-4.646328e-6,0.717148,-9.730496,3.000491)"
       gradientUnits="userSpaceOnUse" />
  </defs>
  <sodipodi:namedview
     id="base"
     pagecolor="#ffffff"
     bordercolor="#666666"
     borderopacity="1.0"
     inkscape:pageopacity="0.0"
     inkscape:pageshadow="2"
     inkscape:zoom="42.440064"
     inkscape:cx="14.912204"
     inkscape:cy="14.256679"
     inkscape:current-layer="layer1"
     showgrid="true"
     inkscape:grid-bbox="true"
     inkscape:document-units="px"
     fill="#d3d7cf"
     inkscape:window-width="1268"
     inkscape:window-height="971"
     inkscape:window-x="6"
     inkscape:window-y="21"
     showguides="true"
     inkscape:guide-bbox="true" />
  <metadata
     id="metadata2196">
    <rdf:RDF>
      <cc:Work
         rdf:about="">
        <dc:format>image/svg+xml</dc:format>
        <dc:type
           rdf:resource="http://purl.org/dc/dcmitype/StillImage" />
      </cc:Work>
    </rdf:RDF>
  </metadata>
  <g
     id="layer1"
     inkscape:label="Layer 1"
     inkscape:groupmode="layer">
    <path
       sodipodi:type="arc"
       style="opacity:0.6;fill:url(#radialGradient1359);fill-opacity:1;stroke:none;stroke-width:1;stroke-miterlimit:4;stroke-dasharray:none;stroke-opacity:1"
       id="path3140"
       sodipodi:cx="10.748654"
       sodipodi:cy="10.457643"
       sodipodi:rx="6.6449099"
       sodipodi:ry="2.3675451"
       d="M 17.393564 10.457643 A 6.6449099 2.3675451 0 1 1  4.1037445,10.457643 A 6.6449099 2.3675451 0 1 1  17.393564 10.457643 z"
       transform="matrix(1.580158,0,0,1.055945,-6.484565,9.4573)" />
    <path
       style="opacity:1;fill:#e1e0dd;fill-opacity:1;stroke:#999e97;stroke-width:0.99112004;stroke-miterlimit:4;stroke-dasharray:none;stroke-opacity:1"
       d="M 2.5357924,8.496577 C 2.5796262,10.669836 2.5861124,13.84649 2.5861124,16.408046 C 2.5861124,19.202084 5.1274254,21.542011 9.9993471,21.542011 C 14.840178,21.542011 17.46441,19.173667 17.46441,16.543766 C 18.712026,16.543766 21.587133,16.772895 21.587133,12.045598 C 21.587133,7.338052 19.406745,7.5083631 17.482825,7.5083631 C 17.482825,5.1523127 17.584098,2.4770579 10.06223,2.4770579 C 2.5736847,2.4770579 2.5357924,5.2234289 2.5357924,8.496577 z M 17.487057,9.5337748 C 19.067753,9.5337748 19.55956,10.173059 19.55956,12.017838 C 19.55956,13.436074 19.466483,14.415353 17.489672,14.462478 C 17.489672,13.478159 17.487057,10.518009 17.487057,9.5337748 z "
       id="path4023"
       sodipodi:nodetypes="cczccczccccc" />
    <path
       style="opacity:1;fill:#df9b25;fill-opacity:1;stroke:#805c19;stroke-width:1.00000131;stroke-miterlimit:4;stroke-opacity:1"
       d="M 15.501546,11.891157 C 15.501546,16.956788 14.591273,18.499944 9.9829426,18.499944 C 5.4458171,18.499944 4.4999425,17.142941 4.4999425,11.954617 C 4.4999425,4.1050698 7.5782886,4.4965576 10.02936,4.4965576 C 12.546866,4.4965576 15.501546,4.7278647 15.501546,11.891157 z "
       id="path2224"
       sodipodi:nodetypes="czczc" />
    <path
       style="opacity:1;fill:url(#linearGradient2234);fill-opacity:1.0;stroke:none;stroke-width:1;stroke-miterlimit:4;stroke-opacity:1"
       d="M 8.0498286,10.006747 C 9.4801821,10.505399 10.655253,10.42966 12.066648,10.051478 L 12.066648,18.010165 C 10.929861,19.30935 9.2536155,19.298477 8.0247109,17.998441 L 8.0498286,10.006747 z "
       id="path1325"
       sodipodi:nodetypes="ccccc" />
    <image
       id="image2213"
       height="112"
       width="97"
       sodipodi:absref="/home/hbons/Desktop/images.jpeg"
       xlink:href="/home/hbons/Desktop/images.jpeg"
       x="-118"
       y="-63" />
    <path
       style="opacity:1;fill:url(#linearGradient2236);fill-opacity:1.0;stroke:none;stroke-width:1;stroke-miterlimit:4;stroke-opacity:1"
       d="M 3.9831802,8.1002896 C 4.7194076,9.3754729 6.0276784,9.6705259 7.0256108,9.9379211 L 7.0256108,18.004874 C 5.5637768,18.004874 5.1869671,18.29173 3.9580625,16.991694 L 3.9831802,8.1002896 z "
       id="path2216"
       sodipodi:nodetypes="ccccc" />
    <path
       style="opacity:1;fill:url(#linearGradient2232);fill-opacity:1.0;stroke:none;stroke-width:1;stroke-miterlimit:4;stroke-opacity:1"
       d="M 13.05364,10.028522 C 13.907332,9.9973191 15.276264,9.5045274 16.041937,8.1783432 L 16.041937,17.003417 C 14.90515,18.302602 14.671131,18.020215 12.974389,18.020215 L 13.05364,10.028522 z "
       id="path2220"
       sodipodi:nodetypes="ccccc" />
    <path
       sodipodi:type="arc"
       style="opacity:1;fill:#eeeeec;fill-opacity:1;fill-rule:evenodd;stroke:none;stroke-width:0.63135248;stroke-miterlimit:4;stroke-dasharray:none;stroke-opacity:1"
       id="path2284"
       sodipodi:cx="9.1470556"
       sodipodi:cy="5.6392436"
       sodipodi:rx="4.1819873"
       sodipodi:ry="1.5661625"
       d="M 13.329043 5.6392436 A 4.1819873 1.5661625 0 1 1  4.9650683,5.6392436 A 4.1819873 1.5661625 0 1 1  13.329043 5.6392436 z"
       transform="matrix(1.313912,0,0,1.909372,-2.01944,-6.264336)" />
    <path
       sodipodi:type="arc"
       style="opacity:1;fill:url(#radialGradient2300);fill-opacity:1;fill-rule:evenodd;stroke:#babdb6;stroke-width:0.63016176;stroke-miterlimit:4;stroke-dasharray:none;stroke-opacity:1"
       id="path2266"
       sodipodi:cx="9.1470556"
       sodipodi:cy="5.6392436"
       sodipodi:rx="4.1819873"
       sodipodi:ry="1.5661625"
       d="M 13.329043 5.6392436 A 4.1819873 1.5661625 0 1 1  4.9650683,5.6392436 A 4.1819873 1.5661625 0 1 1  13.329043 5.6392436 z"
       transform="matrix(1.315088,0,0,1.91488,-2.029316,-6.29802)" />
    <path
       transform="matrix(1.24193,0,0,1.770383,-2.295852,-4.72407)"
       style="fill:none;fill-opacity:1;fill-rule:evenodd;stroke:#ffffff;stroke-width:0.67440075;stroke-miterlimit:4;stroke-opacity:1"
       d="M 14.375092,6.077144 C 14.375092,7.1910459 11.471581,7.464286 9.8928576,7.464286 C 8.3331059,7.464286 5.4451779,7.1462927 5.4451779,6.0667033"
       id="path2256"
       sodipodi:nodetypes="czc" />
  </g>
</svg>
